X: 25
T:The York Reel
M:4/4
L:1/8
R:10
K:DMix
|:z|E2 ED B,A, A,B,|(3G,G,G, G,A, B,G,B,D|E2 ED B,A,A,B,|(3G,A,A, A,B, E
2 E:|
|:D|EGFE EDB,D|(3A,B,B, B,A, (3A,B,B, B,D|EGFE EDB,D|(3G,A,A, A,B, E2 E:
|
|:z|e2 ed BAAB|(3GGG GA BGBd|e2 ed BAAB|(3GAA AB e2 e:|
|:d|egfe edBd|(3ABB BA (3ABB Bd|egfe edBd|(3GAA AB e2 2:|

